assets/Man astronaut/Medium-Dark/Flat/man_astronaut_flat_medium-dark.svg

<svg width="32" height="32" viewBox="0 0 32 32" fill="none" xmlns="http://www.w3.org/2000/svg">
<path d="M21.61 18.47H10.4C7.17 20.39 6 23.97 6 28L5 29.99H11.5257L15.9866 28.2042L20.4726 29.99H27.02L26 28C26.1438 23.9726 24.85 20.39 21.61 18.47Z" fill="#D3D3D3"/>
<path d="M9.47003 19.87C8.23003 18.95 8.88003 16.99 10.42 16.99H21.6C23.13 16.99 23.78 18.96 22.55 19.87C20.72 21.23 18.46 22.03 16.01 22.03C13.56 22.03 11.3 21.22 9.47003 19.87Z" fill="#E6E6E6"/>
<path d="M23.01 19.45V29.99H27.01V27.62C26.92 24.33 25.38 21.41 23.01 19.45Z" fill="#E6E6E6"/>
<path d="M5.97278 27.8751L5.01599 28.9902L5.02001 29.99H7.01001L9.03001 29.98L8.98001 19.47C6.84337 21.2398 5.39627 23.8001 5.07056 26.7036L5.97278 27.8751Z" fill="#E6E6E6"/>
<path d="M18 25C18.5523 25 19 24.5523 19 24C19 23.4477 18.5523 23 18 23C17.4477 23 17 23.4477 17 24C17 24.5523 17.4477 25 18 25Z" fill="#F92F60"/>
<path d="M15 24C15 24.5523 14.5523 25 14 25C13.4477 25 13 24.5523 13 24C13 23.4477 13.4477 23 14 23C14.5523 23 15 23.4477 15 24Z" fill="#5092FF"/>
<path d="M7.37001 27.04V28.66C7.37001 28.85 7.22001 29 7.04001 29H5.02001L5.01001 27.5C5.02001 27.23 5.04001 26.96 5.07001 26.7H7.03001C7.22001 26.7 7.37001 26.85 7.37001 27.04Z" fill="#5092FF"/>
<path d="M6.86913 9H7.91107C7.75349 9.64059 7.66992 10.3104 7.66992 11C7.66992 12.0579 7.86662 13.0694 8.22547 14H6.86913C6.38961 14 6 13.61 6 13.13V9.87C6 9.39 6.38961 9 6.86913 9Z" fill="#9B9B9B"/>
<path d="M24.3301 11C24.3301 12.0579 24.1334 13.0694 23.7745 14H25.1309C25.6104 14 26 13.61 26 13.13V9.87C26 9.39 25.6104 9 25.1309 9H24.0884C24.2463 9.64059 24.3301 10.3104 24.3301 11Z" fill="#9B9B9B"/>
<path d="M12.3191 26H19.6809C20.1404 26 20.5 26.3582 20.5 26.8159V30H11.5V26.8159C11.5 26.3682 11.8696 26 12.3191 26Z" fill="#9B9B9B"/>
<path d="M15.75 19.1699C20.3063 19.1699 24 15.4763 24 10.9199C24 6.36357 20.3063 2.66992 15.75 2.66992C11.1937 2.66992 7.5 6.36357 7.5 10.9199C7.5 15.4763 11.1937 19.1699 15.75 19.1699Z" fill="#212121"/>
<path d="M15.5553 3C12.7685 3 10.5647 5.40719 10.7623 8.24748L11.1576 13.9381C11.3256 15.7209 12.7092 17 14.3892 17H17.6108C19.2908 17 20.6744 15.7209 20.8424 13.9381L21.2377 8.24748C21.4353 5.41727 19.2315 3 16.4447 3H15.5553V3Z" fill="#966661"/>
<path d="M12.3099 10.5016C12.4599 9.89164 13.0199 9.43164 13.6799 9.43164C14.3699 9.43164 14.9399 9.92164 15.0699 10.5716C15.0999 10.7116 14.9899 10.8416 14.8399 10.8416H12.5799C12.3999 10.8416 12.2599 10.6716 12.3099 10.5016Z" fill="white"/>
<path d="M19.9 10.5016C19.75 9.89164 19.19 9.43164 18.53 9.43164C17.84 9.43164 17.27 9.92164 17.14 10.5716C17.11 10.7116 17.22 10.8416 17.37 10.8416H19.63C19.81 10.8416 19.94 10.6816 19.9 10.5016Z" fill="white"/>
<path d="M12.98 10.6117C12.98 10.1117 13.39 9.70166 13.89 9.70166C14.39 9.70166 14.79 10.1017 14.79 10.6017C14.79 10.6917 14.78 10.7717 14.76 10.8517H13.01C12.99 10.7717 12.98 10.6917 12.98 10.6117Z" fill="#7D4533"/>
<path d="M19.2299 10.6117C19.2299 10.1117 18.8199 9.70166 18.3199 9.70166C17.8199 9.70166 17.4199 10.1017 17.4199 10.6117C17.4199 10.6917 17.4299 10.7717 17.4499 10.8517H19.1999C19.2199 10.7717 19.2299 10.6917 19.2299 10.6117Z" fill="#7D4533"/>
<path d="M13.89 10.0815C14.18 10.0815 14.41 10.3115 14.41 10.6015C14.41 10.6915 14.38 10.7715 14.35 10.8415H13.43C13.39 10.7715 13.37 10.6915 13.37 10.6015C13.37 10.3115 13.6 10.0815 13.89 10.0815Z" fill="black"/>
<path d="M18.3199 10.0815C18.0299 10.0815 17.7999 10.3115 17.7999 10.6015C17.7999 10.6915 17.8299 10.7715 17.8599 10.8415H18.7799C18.8199 10.7715 18.8399 10.6915 18.8399 10.6015C18.8399 10.3115 18.6099 10.0815 18.3199 10.0815Z" fill="black"/>
<path d="M13.7399 10.2518C13.7399 10.3402 13.6683 10.4118 13.5799 10.4118C13.4916 10.4118 13.4199 10.3402 13.4199 10.2518C13.4199 10.1634 13.4916 10.0918 13.5799 10.0918C13.6683 10.0918 13.7399 10.1634 13.7399 10.2518Z" fill="white"/>
<path d="M18.2 10.2518C18.2 10.3402 18.1284 10.4118 18.04 10.4118C17.9516 10.4118 17.88 10.3402 17.88 10.2518C17.88 10.1634 17.9516 10.0918 18.04 10.0918C18.1284 10.0918 18.2 10.1634 18.2 10.2518Z" fill="white"/>
<path d="M21.183 4.39181L20.7647 4.18181C20.4729 4.03181 20.2005 3.83181 19.967 3.59181L19.1499 3.5C18.537 2.87 17.6323 2.66 16.8151 2.95C16.2898 3.14 15.7061 3.14 15.1808 2.95C14.4707 2.58 13.6049 2.73 13.0309 3.31L12.0386 3.58181C11.8052 3.82181 11.5328 4.02181 11.2312 4.18181L10.8226 4.39181C10.0541 4.79181 9.62608 5.66181 9.78173 6.53181L10.3362 9.66181C10.3946 9.97181 10.6573 10.2018 10.9588 10.2118C10.9588 10.2118 10.9005 9.32181 10.8615 8.75181C10.8421 8.46181 10.9588 8.17181 11.1728 7.97181L11.3577 7.80181C11.6106 7.57181 11.7468 7.24181 11.7468 6.90181V6.02181C11.7468 5.77181 11.9122 5.55181 12.1457 5.49181C12.778 5.33181 14.1302 5.05181 15.998 5.05181C17.8658 5.05181 19.218 5.33181 19.8503 5.49181C20.0837 5.55181 20.2491 5.77181 20.2491 6.02181V6.90181C20.2491 7.24181 20.395 7.57181 20.6382 7.80181L20.8328 7.98181C21.0468 8.18181 21.1636 8.46181 21.1441 8.76181C21.1052 9.33181 21.0468 10.2118 21.0468 10.2118C21.3484 10.1918 21.6013 9.97181 21.6597 9.66181L22.2142 6.53181C22.3796 5.66181 21.9613 4.79181 21.183 4.39181Z" fill="#2D242D"/>
<path d="M19.24 8.93176C19.35 9.00177 19.46 9.04177 19.58 9.04177C19.75 9.04177 19.91 8.97177 20.01 8.82177C20.2 8.58177 20.15 8.23177 19.91 8.04177C19.88 8.01177 19.04 7.37177 17.82 7.52177C17.51 7.56177 17.29 7.84177 17.33 8.14176C17.37 8.45177 17.64 8.67177 17.95 8.63177C18.6767 8.54456 19.1781 8.88922 19.2358 8.92891C19.2377 8.93018 19.24 8.93176 19.24 8.93176Z" fill="#372128"/>
<path d="M12.19 8.82174C12.29 8.96174 12.46 9.04173 12.63 9.04173C12.74 9.04173 12.86 9.00173 12.96 8.93173C12.98 8.91173 13.49 8.54174 14.25 8.63174C14.56 8.66174 14.83 8.44173 14.87 8.14173C14.9 7.83173 14.68 7.56173 14.38 7.52173C13.17 7.38173 12.32 8.01173 12.29 8.04173C12.05 8.23173 12 8.57174 12.19 8.82174Z" fill="#372128"/>
<path d="M15.6541 10.2897L15.1583 12.0282C15.0554 12.384 15.2986 12.75 15.6447 12.75H16.3743C16.7204 12.75 16.9636 12.384 16.8607 12.0282L16.365 10.2897C16.2621 9.90342 15.7663 9.90342 15.6541 10.2897Z" fill="#75443E"/>
<path d="M16.0005 13.7057C15.45 13.7057 14.9301 13.5669 14.4918 13.3212C14.3389 13.2358 14.186 13.4174 14.2777 13.5669C14.6447 14.1542 15.2767 14.5493 16.0005 14.5493C16.7243 14.5493 17.3563 14.1542 17.7233 13.5669C17.8151 13.4174 17.652 13.2465 17.5093 13.3212C17.0607 13.5669 16.551 13.7057 16.0005 13.7057Z" fill="#990838"/>
<path d="M16.01 6.8C18.76 6.8 21.2899 7.72 23.3099 9.26C23.3099 5.8859 21.5945 2.70573 16.01 2.70573C11.4136 2.70573 8.38844 5.96347 8.70995 9.26C10.73 7.72 13.26 6.8 16.01 6.8Z" fill="#636363"/>
<path d="M18.03 15.6599H21C21.28 15.6599 21.5 15.4399 21.5 15.1599C21.5 14.8799 21.28 14.6599 21 14.6599H18.03C17.75 14.6599 17.53 14.8799 17.53 15.1599C17.53 15.4399 17.76 15.6599 18.03 15.6599Z" fill="#636363"/>
<path d="M21.07 14.2401C20.2 15.6001 18.79 16.5901 17.15 16.9101C16.71 16.9901 16.39 17.3701 16.39 17.8201V18.9701H18.52C21.04 18.1701 23.05 16.2101 23.9 13.7101H22.07C21.67 13.7001 21.29 13.9001 21.07 14.2401Z" fill="#9B9B9B"/>
<path d="M16 2C11.0255 2 7 6.02553 7 11C7 15.9745 11.0255 20 16 20C20.9745 20 25 15.9745 25 11C25 6.02553 20.9645 2 16 2ZM16 18.5017C11.8646 18.5017 8.49834 15.1354 8.49834 11C8.49834 6.8646 11.8646 3.49834 16 3.49834C20.1354 3.49834 23.5017 6.8646 23.5017 11C23.5017 15.1354 20.1354 18.5017 16 18.5017Z" fill="#D3D3D3"/>
</svg>

<svg xmlns="http://www.w3.org/2000/svg" width="32" height="32" fill="none"><path fill="#D3D3D3" d="M21.61 18.47H10.4C7.17 20.39 6 23.97 6 28l-1 1.99h6.526l4.46-1.786 4.487 1.786h6.547L26 28c.144-4.027-1.15-7.61-4.39-9.53Z"/><path fill="#E6E6E6" d="M9.47 19.87c-1.24-.92-.59-2.88.95-2.88H21.6c1.53 0 2.18 1.97.95 2.88a10.918 10.918 0 0 1-6.54 2.16c-2.45 0-4.71-.81-6.54-2.16Z"/><path fill="#E6E6E6" d="M23.01 19.45v10.54h4v-2.37c-.09-3.29-1.63-6.21-4-8.17ZM5.973 27.875l-.957 1.115.004 1h1.99l2.02-.01-.05-10.51a10.968 10.968 0 0 0-3.91 7.234l.903 1.171Z"/><path fill="#F92F60" d="M18 25a1 1 0 1 0 0-2 1 1 0 0 0 0 2Z"/><path fill="#5092FF" d="M15 24a1 1 0 1 1-2 0 1 1 0 0 1 2 0ZM7.37 27.04v1.62c0 .19-.15.34-.33.34H5.02l-.01-1.5c.01-.27.03-.54.06-.8h1.96c.19 0 .34.15.34.34Z"/><path fill="#9B9B9B" d="M6.87 9H7.91a8.363 8.363 0 0 0-.241 2c0 1.058.197 2.07.555 3H6.87A.87.87 0 0 1 6 13.13V9.87c0-.48.39-.87.87-.87ZM24.33 11a8.32 8.32 0 0 1-.555 3h1.356c.48 0 .869-.39.869-.87V9.87a.87.87 0 0 0-.87-.87h-1.042c.158.64.242 1.31.242 2ZM12.32 26h7.36c.46 0 .82.358.82.816V30h-9v-3.184c0-.448.37-.816.82-.816Z"/><path fill="#212121" d="M15.75 19.17a8.25 8.25 0 1 0 0-16.5 8.25 8.25 0 0 0 0 16.5Z"/><path fill="#966661" d="M15.555 3c-2.787 0-4.99 2.407-4.793 5.247l.396 5.691C11.326 15.721 12.709 17 14.389 17h3.222c1.68 0 3.063-1.28 3.231-3.062l.396-5.69C21.435 5.417 19.232 3 16.445 3h-.89Z"/><path fill="#fff" d="M12.31 10.502c.15-.61.71-1.07 1.37-1.07.69 0 1.26.49 1.39 1.14.03.14-.08.27-.23.27h-2.26c-.18 0-.32-.17-.27-.34ZM19.9 10.502c-.15-.61-.71-1.07-1.37-1.07-.69 0-1.26.49-1.39 1.14-.03.14.08.27.23.27h2.26c.18 0 .31-.16.27-.34Z"/><path fill="#7D4533" d="M12.98 10.612c0-.5.41-.91.91-.91s.9.4.9.9c0 .09-.01.17-.03.25h-1.75a.986.986 0 0 1-.03-.24ZM19.23 10.612c0-.5-.41-.91-.91-.91s-.9.4-.9.91c0 .08.01.16.03.24h1.75c.02-.08.03-.16.03-.24Z"/><path fill="#000" d="M13.89 10.082a.516.516 0 0 1 .46.76h-.92a.516.516 0 0 1 .46-.76ZM18.32 10.082a.516.516 0 0 0-.46.76h.92a.516.516 0 0 0-.46-.76Z"/><path fill="#fff" d="M13.74 10.252a.16.16 0 1 1-.32 0 .16.16 0 0 1 .32 0ZM18.2 10.252a.16.16 0 1 1-.32 0 .16.16 0 0 1 .32 0Z"/><path fill="#2D242D" d="m21.183 4.392-.418-.21a3.086 3.086 0 0 1-.798-.59L19.15 3.5a2.212 2.212 0 0 0-2.335-.55c-.525.19-1.109.19-1.634 0-.71-.37-1.576-.22-2.15.36l-.992.272c-.234.24-.506.44-.808.6l-.408.21a2.015 2.015 0 0 0-1.041 2.14l.554 3.13c.059.31.321.54.623.55l-.098-1.46a.987.987 0 0 1 .312-.78l.185-.17c.253-.23.389-.56.389-.9v-.88c0-.25.165-.47.399-.53.632-.16 1.984-.44 3.852-.44 1.868 0 3.22.28 3.852.44.234.06.4.28.4.53v.88c0 .34.145.67.388.9l.195.18c.214.2.33.48.311.78l-.097 1.45a.668.668 0 0 0 .613-.55l.554-3.13a1.982 1.982 0 0 0-1.031-2.14Z"/><path fill="#372128" d="M19.24 8.932c.11.07.22.11.34.11.17 0 .33-.07.43-.22.19-.24.14-.59-.1-.78-.03-.03-.87-.67-2.09-.52a.56.56 0 0 0 .13 1.11 1.917 1.917 0 0 1 1.29.3ZM12.19 8.822c.1.14.27.22.44.22.11 0 .23-.04.33-.11.02-.02.53-.39 1.29-.3.31.03.58-.19.62-.49a.568.568 0 0 0-.49-.62c-1.21-.14-2.06.49-2.09.52-.24.19-.29.53-.1.78Z"/><path fill="#75443E" d="m15.654 10.29-.496 1.738c-.103.356.14.722.487.722h.73c.345 0 .589-.366.486-.722l-.496-1.738c-.103-.387-.599-.387-.71 0Z"/><path fill="#990838" d="M16 13.706c-.55 0-1.07-.14-1.508-.385-.153-.085-.306.096-.214.246.367.587.999.982 1.722.982.724 0 1.356-.395 1.723-.982.092-.15-.071-.32-.214-.246a3.118 3.118 0 0 1-1.509.385Z"/><path fill="#636363" d="M16.01 6.8a12 12 0 0 1 7.3 2.46c0-3.374-1.715-6.554-7.3-6.554-4.596 0-7.622 3.257-7.3 6.554a12 12 0 0 1 7.3-2.46ZM18.03 15.66H21c.28 0 .5-.22.5-.5s-.22-.5-.5-.5h-2.97c-.28 0-.5.22-.5.5s.23.5.5.5Z"/><path fill="#9B9B9B" d="M21.07 14.24a6.041 6.041 0 0 1-3.92 2.67c-.44.08-.76.46-.76.91v1.15h2.13c2.52-.8 4.53-2.76 5.38-5.26h-1.83c-.4-.01-.78.19-1 .53Z"/><path fill="#D3D3D3" d="M16 2c-4.975 0-9 4.026-9 9 0 4.975 4.025 9 9 9 4.974 0 9-4.025 9-9 0-4.974-4.035-9-9-9Zm0 16.502c-4.135 0-7.502-3.367-7.502-7.502S11.865 3.498 16 3.498 23.502 6.865 23.502 11 20.135 18.502 16 18.502Z"/></svg>
